img/svg/16/os/win-1.svg

<svg xmlns="http://www.w3.org/2000/svg" viewBox="0 0 16 16"><path fill="#ccc" d="m4.229 13.239.983-.472v-.982l-.983.461zm-1.153-.231.802-.361v-.732l-.802.381zM1.993 5.396l.581-.321v-.622l-.581.352zm1.083 6.198.802-.371v-.733l-.802.382zm0-1.374.802-.371v-.732l-.802.381zm0-4.232.802-.362v-.731l-.802.381zm0-1.434.802-.361V3.46l-.802.382zM1.993 6.77l.581-.331v-.621l-.581.35zm1.083 2.006.802-.361v-.733l-.802.382zm0-1.424.802-.361v-.743l-.802.391zm-1.083-3.39.581-.331v-.612l-.581.351zM1 9.107l.451-.201v-.431L1 8.696zm0-1.434.451-.201v-.441L1 7.252zm0 4.232.451-.201v-.441L1 11.494zm0-5.657.451-.19v-.441L1 5.827zm0 4.233.451-.201v-.431l-.451.22zm0-7.03.451-.201v-.441L1 3.039zm0 1.433.451-.2v-.442L1 4.464zm.993 6.119.581-.332v-.622l-.581.351zm0-1.375.581-.33v-.613l-.581.351zm0 2.788.581-.321v-.622l-.581.351zm0-4.222.581-.331v-.622l-.581.352zm3.48 2.437 1.153-.591V8.916l-1.153.582zm1.404-1.725 1.243-.652V7.06l-1.243.603zm0 2.848 1.243-.642V9.909l-1.243.602zm0-1.454 1.243-.642V8.455l-1.243.612zM5.473 4.965l1.153-.582V3.259l-1.153.583zm1.404 8.213 1.243-.651v-1.194l-1.243.602zM5.473 6.399l1.153-.581V4.694l-1.153.582zm-1.244 5.416.983-.462v-.992l-.983.471zm2.648-7.161 1.243-.652V2.809l-1.243.601zm0 2.828L8.12 6.84V5.637l-1.243.602zm0-1.404 1.243-.652V4.222l-1.243.612zM4.229 7.593l.983-.472v-.982l-.983.46zm0 1.423.983-.471v-.983l-.983.461zm0-2.788.983-.471v-.993l-.983.471zm1.244 1.535 1.153-.582V6.058l-1.153.581zm-1.244 2.698.983-.471v-.993l-.983.471zm1.244 1.544 1.153-.592V10.29l-1.153.582zM4.229 4.784l.983-.471V3.33l-.983.462zm1.244 4.413 1.153-.591V7.482l-1.153.582zm0 4.222 1.153-.582v-1.122l-1.153.581zM8.321 2.718v1.37c.878-.388 1.597-.597 2.226-.637V6.56c-.748.059-1.487.288-2.226.627v.973c.819-.398 1.558-.577 2.227-.627v2.969c-.788.14-1.547.349-2.227.667v1.399c2.106-1.224 4.343-1.103 6.679.03V2.829c-2.316-1.104-4.533-1.043-6.679-.111zm5.306 8.064c-.702-.231-1.354-.361-2.207-.321V7.402c.732-.09 1.474 0 2.207.291v3.089zm0-3.982c-.291-.111-.933-.311-1.324-.311h-.883V3.31c.732-.07 1.474.04 2.207.351V6.8z"/></svg>

<svg xmlns="http://www.w3.org/2000/svg" viewBox="0 0 16 16" enable-background="new 0 0 16 16"><g fill="#ccc"><path d="M4.229 13.239l.983-.472v-.982l-.983.461zM3.076 13.008l.802-.361v-.732l-.802.381zM1.993 5.396l.581-.321v-.622l-.581.352zM3.076 11.594l.802-.371v-.733l-.802.382zM3.076 10.22l.802-.371v-.732l-.802.381zM3.076 5.988l.802-.362v-.731l-.802.381zM3.076 4.554l.802-.361v-.733l-.802.382zM1.993 6.77l.581-.331v-.621l-.581.35zM3.076 8.776l.802-.361v-.733l-.802.382zM3.076 7.352l.802-.361v-.743l-.802.391zM1.993 3.962l.581-.331v-.612l-.581.351zM1 9.107l.451-.201v-.431l-.451.221zM1 7.673l.451-.201v-.441l-.451.221zM1 11.905l.451-.201v-.441l-.451.231zM1 6.248l.451-.19v-.441l-.451.21zM1 10.481l.451-.201v-.431l-.451.22zM1 3.451l.451-.201v-.441l-.451.23zM1 4.884l.451-.2v-.442l-.451.222zM1.993 11.003l.581-.332v-.622l-.581.351zM1.993 9.628l.581-.33v-.613l-.581.351zM1.993 12.416l.581-.321v-.622l-.581.351zM1.993 8.194l.581-.331v-.622l-.581.352zM5.473 10.631l1.153-.591v-1.124l-1.153.582zM6.877 8.906l1.243-.652v-1.194l-1.243.603zM6.877 11.754l1.243-.642v-1.203l-1.243.602zM6.877 10.3l1.243-.642v-1.203l-1.243.612zM5.473 4.965l1.153-.582v-1.124l-1.153.583zM6.877 13.178l1.243-.651v-1.194l-1.243.602zM5.473 6.399l1.153-.581v-1.124l-1.153.582zM4.229 11.815l.983-.462v-.992l-.983.471zM6.877 4.654l1.243-.652v-1.193l-1.243.601zM6.877 7.482l1.243-.642v-1.203l-1.243.602zM6.877 6.078l1.243-.652v-1.204l-1.243.612zM4.229 7.593l.983-.472v-.982l-.983.46zM4.229 9.016l.983-.471v-.983l-.983.461zM4.229 6.228l.983-.471v-.993l-.983.471zM5.473 7.763l1.153-.582v-1.123l-1.153.581zM4.229 10.461l.983-.471v-.993l-.983.471zM5.473 12.005l1.153-.592v-1.123l-1.153.582zM4.229 4.784l.983-.471v-.983l-.983.462zM5.473 9.197l1.153-.591v-1.124l-1.153.582zM5.473 13.419l1.153-.582v-1.122l-1.153.581zM8.321 2.718v1.37c.878-.388 1.597-.597 2.226-.637v3.109c-.748.059-1.487.288-2.226.627v.973c.819-.398 1.558-.577 2.227-.627v2.969c-.788.14-1.547.349-2.227.667v1.399c2.106-1.224 4.343-1.103 6.679.03v-9.769c-2.316-1.104-4.533-1.043-6.679-.111zm5.306 8.064c-.702-.231-1.354-.361-2.207-.321v-3.059c.732-.09 1.474 0 2.207.291v3.089zm0-3.982c-.291-.111-.933-.311-1.324-.311h-.883v-3.179c.732-.07 1.474.04 2.207.351v3.139z"/></g></svg>
